!!! OTL: Berkowitz443
!!! Chapter: 1
!!! Section: IV
!!! Page: 110
!!! Mode: 
!!! Encoder: DJB
**kern
*staff1
*I"Piano
=1-
*clefG2
*k[b-]
*d:
*M6/8
8d/L
8f/
8a/J
4.dd\
=2
8.d/L
16g/K
8b-/J
4.dd\
=3
8b-\L
8cc\
8dd\J
4ee-\
8b-\
=4
4g/
8g#/
4a/
8r
=5
8a/L
8g#/
8a/J
4b-\
8a/
=6
4g/
8f/
4e-/
8d/
=7
4c#/
8b-\
4a/
8g/
=8
8.f/L
16g/K
8e/J
4.d/
==
*-
